packages/clerk-js/src/ui/icons/dot-circle-horizontal.svg

<svg width="16" height="16" viewBox="0 0 16 16" fill="none" xmlns="http://www.w3.org/2000/svg">
<path fill-rule="evenodd" clip-rule="evenodd" d="M8 16C12.4183 16 16 12.4183 16 8C16 3.58172 12.4183 0 8 0C3.58172 0 0 3.58172 0 8C0 12.4183 3.58172 16 8 16ZM5 7H3V9H5V7ZM13 7H11V9H13V7ZM7 7H9V9H7V7Z" fill="currentColor"/>
</svg>

<svg xmlns="http://www.w3.org/2000/svg" fill="none" viewBox="0 0 16 16"><path fill="currentColor" fill-rule="evenodd" d="M8 16A8 8 0 1 0 8 0a8 8 0 0 0 0 16ZM5 7H3v2h2V7Zm8 0h-2v2h2V7ZM7 7h2v2H7V7Z" clip-rule="evenodd"/></svg>
